svg/osm/school.svg

<?xml version="1.0" encoding="UTF-8" standalone="no"?>
<svg
   xmlns:svg="http://www.w3.org/2000/svg"
   xmlns="http://www.w3.org/2000/svg"
   version="1.1"
   width="18.639999"
   height="18.639999"
   id="svg3077">
  <g
     transform="matrix(0.025,0,0,0.025,0,-0.37130184)"
     id="g5615">
    <path
       d="M 163,4.7 47,365.7"
       id="path5617"
       style="fill:none;stroke:#a52a2a;stroke-width:20" />
    <path
       d="M 163,4.7 232,431"
       id="path5619"
       style="fill:none;stroke:#a52a2a;stroke-width:18.90410042" />
    <path
       d="m 163,4.7 149,277"
       id="path5621"
       style="fill:none;stroke:#a52a2a;stroke-width:20" />
    <path
       d="m 6,53.7 c 0,0 283,67 284,70 1,3 -3,222 -3,222 L 0,248.7 6,53.7 z"
       id="path5623" />
    <path
       d="m 36,128.7 c -1.2,-8.1 16.8,-17.4 25,-17.2 14.7,0.4 20,10.1 26.8,23.3 7.8,15 10.9,36 12.3,53 0.5,6.2 1.3,40.2 4.9,39.9"
       id="path5625"
       style="fill:none;stroke:#ffffff;stroke-width:20" />
    <path
       d="m 94,158.7 c -17.5,-12.4 -58.4,7.4 -59,28 -0.5,17.8 16,23 29.9,26 15.4,3.2 19.2,0.8 29.1,-11"
       id="path5627"
       style="fill:none;stroke:#ffffff;stroke-width:20" />
    <path
       d="m 136,101.7 c -11.6,26.2 -2.8,64 -5,92.9 -1.2,16.3 0.7,40.2 -2,54.1"
       id="path5629"
       style="fill:none;stroke:#ffffff;stroke-width:20" />
    <path
       d="m 131,176.7 c 10.8,-4.2 18.3,-17.9 32.8,-10 11.5,6.3 13.7,23.1 14.2,34.9 0.7,15.6 -3.3,26.4 -18.8,31.8 -7.6,2.7 -25.5,5.8 -24.2,-7.7"
       id="path5631"
       style="fill:none;stroke:#ffffff;stroke-width:20" />
    <path
       d="m 261,196.7 c -4.1,-11.8 -20.9,-19.9 -33.1,-16.8 -16.3,4.2 -23.3,25 -21.9,40.1 2.3,25.4 29.8,56.5 52,31.7"
       id="path5633"
       style="fill:none;stroke:#ffffff;stroke-width:20" />
  </g>
</svg>

<?xml version="1.0" encoding="UTF-8" standalone="no"?>
<svg xmlns:dc="http://purl.org/dc/elements/1.1/" xmlns:cc="http://creativecommons.org/ns#" xmlns:rdf="http://www.w3.org/1999/02/22-rdf-syntax-ns#" xmlns:svg="http://www.w3.org/2000/svg" xmlns="http://www.w3.org/2000/svg" version="1.1" width="18.639999" height="18.639999" id="svg3077">
  <g transform="matrix(0.025,0,0,0.025,5,3.6286982)" id="g5615">
    <path d="M 163,4.7 47,365.7" id="path5617" style="fill:none;stroke:#a52a2a;stroke-width:20" />
    <path d="M 163,4.7 232,431" id="path5619" style="fill:none;stroke:#a52a2a;stroke-width:18.90410042" />
    <path d="M 163,4.7 312,281.7" id="path5621" style="fill:none;stroke:#a52a2a;stroke-width:20" />
    <path d="M 6,53.7 C 6,53.7 289,120.7 290,123.7 291,126.7 287,345.7 287,345.7 L 0,248.7 6,53.7 z" id="path5623" />
    <path d="M 36,128.7 C 34.8,120.6 52.8,111.3 61,111.5 75.7,111.9 81,121.6 87.8,134.8 95.6,149.8 98.7,170.8 100.1,187.8 100.6,194 101.4,228 105,227.7" id="path5625" style="fill:none;stroke:#ffffff;stroke-width:20" />
    <path d="M 94,158.7 C 76.5,146.3 35.6,166.1 35,186.7 34.5,204.5 51,209.7 64.9,212.7 80.3,215.9 84.1,213.5 94,201.7" id="path5627" style="fill:none;stroke:#ffffff;stroke-width:20" />
    <path d="M 136,101.7 C 124.4,127.9 133.2,165.7 131,194.6 129.8,210.9 131.7,234.8 129,248.7" id="path5629" style="fill:none;stroke:#ffffff;stroke-width:20" />
    <path d="M 131,176.7 C 141.8,172.5 149.3,158.8 163.8,166.7 175.3,173 177.5,189.8 178,201.6 178.7,217.2 174.7,228 159.2,233.4 151.6,236.1 133.7,239.2 135,225.7" id="path5631" style="fill:none;stroke:#ffffff;stroke-width:20" />
    <path d="M 261,196.7 C 256.9,184.9 240.1,176.8 227.9,179.9 211.6,184.1 204.6,204.9 206,220 208.3,245.4 235.8,276.5 258,251.7" id="path5633" style="fill:none;stroke:#ffffff;stroke-width:20" />
  </g>
</svg>
